X:176
T:Nelson's Praise - Illmington
M:4/4
L:1/8
K:G
dc | B2 A2 G2 dc | B2 A2 G2 d2 | e2 ed cdec | d2 dc BcdB |
c2 B2 A2G2 | FGAF D2 dc | BGBG A2 F2 | G4 G4 ||
g2 g2 g2 fg | a2 d2 d4 | gfed cBAG | FA D2 D4 |
E2 EF GFGA | B2 G2 g4 | g2 d2 e4 | d2 B2 c4 |
c2 B2 A2 G2 | FGAF D2 dc | BGBG A2 F2 | G4 G2 ||
dc | B4 A4 | G4 d2 c2 | B4 A4 | G4 d4 | e4 e2 d2 |
c2 d2 e2 c2 | d4 d2 c2 |[ M:2/4]B2 dB |[ M:4/4]c2 B2 A2 G2 |
FGAF D2 dc | BGBG A2 F2 | G4 G4 ||
